X:0267
T:Pady's Resource.
T:for the Ger: Flute.
M:6/8
L:1/8
Q:3/8=120
Z:Jack Campin * www.campin.me.uk * 2009
K:D
A|d>ed AFA  |d>ed b2a|bag   fed |eBB   B2
c|d>ed AFA  |d>ed b2a|a>bc' d'ag|fdd   d2:|
f|Adf  fdB  |Ace  ecA|Adf   fed |f>gf Te2
d|dfa  d'c'b|afd  e2d|fdB   A>Bd|fdd   d2:|
<end>
<start>
